src/pos-icons/hook.svg

<svg height="24" viewBox="0 0 24 24" width="24" xmlns="http://www.w3.org/2000/svg"><path d="m18 6c0 1.82-1.24 3.41-3 3.86v7.14a5 5 0 0 1 -5 5 5 5 0 0 1 -5-5v-5l5 5h-3a3 3 0 0 0 3 3 3 3 0 0 0 3-3v-7.14c-1.77-.46-3-2.06-3-3.89 0-2.21 1.8-3.97 4-3.97 2.22 0 4 1.79 4 4m-4 2a2 2 0 0 0 2-2 2 2 0 0 0 -2-2 2 2 0 0 0 -2 2 2 2 0 0 0 2 2z"/></svg>

<?xml version="1.0" encoding="UTF-8"?><!DOCTYPE svg PUBLIC "-//W3C//DTD SVG 1.1//EN" "http://www.w3.org/Graphics/SVG/1.1/DTD/svg11.dtd"><svg xmlns="http://www.w3.org/2000/svg" xmlns:xlink="http://www.w3.org/1999/xlink" version="1.1" id="mdi-hook" width="24" height="24" viewBox="0 0 24 24"><path d="M18,6C18,7.82 16.76,9.41 15,9.86V17A5,5 0 0,1 10,22A5,5 0 0,1 5,17V12L10,17H7A3,3 0 0,0 10,20A3,3 0 0,0 13,17V9.86C11.23,9.4 10,7.8 10,5.97C10,3.76 11.8,2 14,2C16.22,2 18,3.79 18,6M14,8A2,2 0 0,0 16,6A2,2 0 0,0 14,4A2,2 0 0,0 12,6A2,2 0 0,0 14,8Z" /></svg>
